X:1
T:St. Casimir, 87.87 D
T:St. Casimir, 87.87 D
T:From Carmina for the Sunday School, 1894
T:Public Domain Courtesy of the Cyber Hymnal™
C:From Carmina for the Sunday School, 1894
Z:Public Domain
Z:Courtesy of the Cyber Hymnal™
%%score ( 1 2 ) ( 3 4 )
L:1/8
Q:1/4=110
M:4/4
K:G
V:1 treble 
V:2 treble 
V:3 bass 
V:4 bass 
V:1
 [DG]2 (AG) [DF]2 [DG]2 | [FA]2 [Fd]2 [GB]2 G2 | [FA]2 [GB]2 [Ac]2 [GB]2 | [GA]3 [GA] [FA]4 | %4
 [DG]2 (AG) [DF]2 [DG]2 | [FA]2 [Fd]2 [GB]2 G2 | [DA]2 [Fd]2 [EB]2 [Ge]2 | [Fd]4 [G^c]4 | %8
 [Fd]6 z2 | [Ec]2 (dc) [EB]2 [^Ge]2 | [Ae]3 [Ac] [EA]2 [EB]2 | [Ec]2 [Ad]2 [GB]2 [Ec]2 | %12
 [DB]2 [DA]2 [CD]4 | [DG]2 (AG) [DF]2 [DG]2 | [FA]2 [Fd]2 [GB]2 G2 | [EG]3 [E^G] [EA]2 [Ac]2 | %16
 [GB]4 [FA]4 | G8 |] %18
V:2
 x2 D2 x4 | x6 G2 | x8 | x8 | x2 D2 x4 | x6 G2 | x8 | x8 | x8 | x2 E2 x4 | x8 | x8 | x8 | %13
 x2 D2 x4 | x6 G2 | x8 | x8 | G8 |] %18
V:3
 [G,B,]2 (CB,) [G,A,]2 [G,B,]2 | [D,D]2 [D,D]2 [G,D]2 [G,B,]2 | [CD]2 [B,D]2 [F,D]2 [G,D]2 | %3
 [A,^C]3 [A,C] [D,D]4 | [G,B,]2 (CB,) [G,A,]2 [G,B,]2 | [D,D]2 [D,D]2 [G,D]2 [G,B,]2 | %6
 [F,A,]2 [D,A,]2 [E,G,]2 [E,B,]2 | A,4 [A,,A,]4 | [D,A,]6 z2 | [E,A,]2 (B,A,) [E,^G,]2 [D,B,]2 | %10
 [C,E]3 [C,E] [C,C]2 [^G,D]2 | A,2 [F,D]2 [G,D]2 [C,C]2 | [D,A,]2 [D,F,]2 [D,F,]4 | %13
 [G,B,]2 (CB,) [G,A,]2 [G,B,]2 | [D,D]2 [D,D]2 [G,D]2 [G,B,]2 | [C,C]3 [C,C] [C,C]2 [A,,E]2 | %16
 [D,D]4 [D,C]4 | [G,B,]8 |] %18
V:4
 x2 G,2 x4 | x8 | x8 | x8 | x2 G,2 x4 | x8 | x8 | A,4 x4 | x8 | x2 E,2 x4 | x8 | A,2 x6 | x8 | %13
 x2 G,2 x4 | x8 | x8 | x8 | x8 |] %18

